X:1
T:St. Hill
T:St. Hill
T:Public Domain Courtesy of the Cyber Hymnal
T:Public Domain Courtesy of the Cyber Hymnal
Z:Public Domain
Z:Courtesy of the Cyber Hymnal
%%score { ( 1 2 ) ( 3 4 ) }
L:1/8
Q:1/4=115
M:4/4
K:G
V:1 treble nm="P1"
V:2 treble 
V:3 bass nm="P2"
V:4 bass 
V:1
"^Editor: John Henry Fowler""^( Revision: 12-3-2007 )" G3 G A2 B2 | E2 F2 G4 | A2 c2 B2 G2 | %3
"^( 1875 )" B4 A4 | G3 G A2 B2 | E2 F2 G4 | %6
"^John Stainer""^( 1840 - 1901 )" [EA]2 [Cc]2 [DB]2 [FA]2 | [GG]8 | B2 B2 e2 d2 | ^c4 d4 | %10
 A2 d2 c2 B2 | c8 | e2 A2 c2 B2 | A4 G4 | G2 F2 E2 D2 | G8 |] %16
V:2
 D3 D D2 D2 | E2 D2 D4 | E2 D2 D2 G2 | G4 F4 | G3 D D2 D2 | D2 C2 B,4 | x8 | x8 | G2 G2 G2 G2 | %9
 G4 F4 | =F2 F2 F2 F2 | E8 | E2 E2 C2 D2 | E4 E4 | C2 C2 C2 C2 | B,8 |] %16
V:3
 B,3 B, C2 B,2 | C2 A,2 B,4 | C2 A,2 B,2 ^C2 | D4 C4 | B,3 B, C2 B,2 | B,2 A,2 G,4 | %6
 [C,G,]2 [A,,G,]2 [D,G,]2 [D,C]2 | B,8 | B,2 B,2 B,2 B,2 | %9
"^1.  Christ, who once among us as a child did dwell,Is the children’s Savior, and He loves us well;If we keep our promise made Him at the font,He will be our Shepherd, and we shall not want.2.  There it was they laid us in those tender arms,Where the lambs are carried safe from all alarms;If we trust His promise, He will let us restIn His arms forever, leaning on His breast.3.  Though we may not see Him for a little while,We shall know He holds us, often feel His smile;Death will be to slumber, in that sweet embrace,And we shall awaken to behold His face.4.  He will be our Shepherd after as before,By still heavenly waters lead us evermore,Make us lie in pastures beautiful and green,Where none thirst or hunger, and no tears are seen.5.  Jesus, our good Shepherd, laying down Thy life,Lest Thy sheep should perish in the cruel strife,Help us to remember all Thy love and care,Trust in Thee, and love Thee always, everywhere." A,4 A,4 | %10
 A,2 A,2 G,2 G,2 | G,8 | G,2 G,2 G,2 G,2 | C4 C4 | A,2 A,2 G,2 F,2 | G,8 |] %16
V:4
 G,3 G, F,2 G,2 | C,2 D,2 G,4 | G,2 F,2 G,2 E,2 | D,8 | G,3 G, F,2 G,2 | C,2 D,2 E,4 | x8 | G,8 | %8
 G,2 G,2 G,2 G,2 | A,4 D,4 | D,2 D,2 G,2 G,2 | C,8 | C,2 C,2 E,2 D,2 | C,4 A,,4 | D,2 D,2 D,2 D,2 | %15
 G,,8 |] %16

